TCanvas/legend.svg

<svg xmlns="http://www.w3.org/2000/svg" viewBox="0 0 1200 800" preserveAspectRatio="none" width="1200" height="800">
 <defs>
  <pattern id="pat_3003_416" patternUnits="userSpaceOnUse" width="4" height="4">
   <path d="M2,1h1v1h-1zM0,3h1v1h-1z" style="fill: green;"></path>
  </pattern>
 </defs>
 <path d="M0,0H1200V800H0Z" style="fill: white;"></path>
 <g>
  <g transform="translate(120,80)">
   <path d="M0,0H960V640H0Z" style="fill: white; stroke: black; stroke-width: 1;"></path>
   <svg x="0" y="0" overflow="hidden" width="960" height="640" viewBox="0 0 960 640">
    <g>
     <path d="M0,640h274v-1h4v1h24v-1h5v1h5v-1h5v-2h5v1h9v-4h5v-2h5v1h5v-10h4v-1h5v2h5v-18h5v2h5v-18h4v-7h5v-23h5v-14h5v-16h5v-18h4v-16h5v-38h5v-33h5v-13h5v-48h4v-36h5v-48h5v-16h5v-49h5v-22h4v-45h5v-30h5v-15h5v-10h5v-27h4v-9h5v-27h5v18h5v-14h5v31h4v5h5v26h5v40h5v49h5v20h4v30h5v32h5v27h5v29h5v34h4v49h5v33h5v9h5v42h5v18h4v25h5v20h5v14h5v14h5v13h9v18h5v5h5v3h5v4h4v7h5v2h5v3h5v4h5v-2h4v1h5v-2h5v2h5v1h5v-1h4v1h10v-1h5v1h283L960,643H0Z" style="stroke-linejoin: miter; stroke: #000099; stroke-width: 1; fill: url(#pat_3003_416);"></path>
    </g>
    <g>
     <path d="M5,617l10,9l9,10l10,-3l9,-10l10,-11l10,-10l9,-9l10,-7l9,-6l10,-3l10,-1l9,2l10,4l9,7l10,9l10,12l9,14l10,15l9,-14l10,-17l10,-16l9,-16l10,-14l9,-12l10,-10l10,-6l9,-2l10,2l9,7l10,11l10,17l9,21l10,26l9,17l10,-34l10,-38l9,-40l10,-43l9,-43l10,-43l10,-43l9,-40l10,-38l9,-35l10,-30l10,-25l9,-19l10,-13l9,-7h10l10,7l9,13l10,19l9,25l10,30l10,35l9,38l10,40l9,43l10,43l10,43l9,43l10,40l9,38l10,34l10,-17l9,-26l10,-21l9,-17l10,-11l10,-7l9,-2l10,2l9,6l10,10l10,12l9,14l10,16l9,16l10,17l10,14l9,-15l10,-14l9,-12l10,-9l10,-7l9,-4l10,-2l9,1l10,3l10,6l9,7l10,9l9,10l10,11l10,10l9,3l10,-10l9,-9" style="fill: none; stroke: blue; stroke-width: 4;"></path>
    </g>
    <g>
     <g transform="translate(53,541)">
      <path style="stroke: red; stroke-width: 2; fill: none;" d="M0,0H-48m0,4v-8M0,0H48m0,4v-8"></path>
     </g>
     <g transform="translate(138,493)">
      <path style="stroke: red; stroke-width: 2; fill: none;" d="M0,0H-48m0,4v-8M0,0H48m0,4v-8M0,0V5m4,0h-8M0,0V-5m4,0h-8"></path>
     </g>
     <g transform="translate(224,446)">
      <path style="stroke: red; stroke-width: 2; fill: none;" d="M0,0H-48m0,4v-8M0,0H48m0,4v-8M0,0V10m4,0h-8M0,0V-10m4,0h-8"></path>
     </g>
     <g transform="translate(309,401)">
      <path style="stroke: red; stroke-width: 2; fill: none;" d="M0,0H-48m0,4v-8M0,0H48m0,4v-8M0,0V15m4,0h-8M0,0V-15m4,0h-8"></path>
     </g>
     <g transform="translate(395,359)">
      <path style="stroke: red; stroke-width: 2; fill: none;" d="M0,0H-48m0,4v-8M0,0H48m0,4v-8M0,0V20m4,0h-8M0,0V-20m4,0h-8"></path>
     </g>
     <g transform="translate(480,319)">
      <path style="stroke: red; stroke-width: 2; fill: none;" d="M0,0H-48m0,4v-8M0,0H48m0,4v-8M0,0V25m4,0h-8M0,0V-25m4,0h-8"></path>
     </g>
     <g transform="translate(565,282)">
      <path style="stroke: red; stroke-width: 2; fill: none;" d="M0,0H-48m0,4v-8M0,0H48m0,4v-8M0,0V30m4,0h-8M0,0V-30m4,0h-8"></path>
     </g>
     <g transform="translate(651,250)">
      <path style="stroke: red; stroke-width: 2; fill: none;" d="M0,0H-48m0,4v-8M0,0H48m0,4v-8M0,0V35m4,0h-8M0,0V-35m4,0h-8"></path>
     </g>
     <g transform="translate(736,221)">
      <path style="stroke: red; stroke-width: 2; fill: none;" d="M0,0H-48m0,4v-8M0,0H48m0,4v-8M0,0V40m4,0h-8M0,0V-40m4,0h-8"></path>
     </g>
     <g transform="translate(822,196)">
      <path style="stroke: red; stroke-width: 2; fill: none;" d="M0,0H-48m0,4v-8M0,0H48m0,4v-8M0,0V45m4,0h-8M0,0V-45m4,0h-8"></path>
     </g>
     <g transform="translate(907,175)">
      <path style="stroke: red; stroke-width: 2; fill: none;" d="M0,0H-48m0,4v-8M0,0H48m0,4v-8M0,0V50m4,0h-8M0,0V-50m4,0h-8"></path>
     </g>
     <path d="M48,536v10h10v-10zM133,488v10h10v-10zM218,441v10h10v-10zM304,396v10h10v-10zM389,353v10h10v-10zM475,314v10h10v-10zM560,277v10h10v-10zM646,244v10h10v-10zM731,215v10h10v-10zM817,191v10h10v-10zM902,170v10h10v-10z" style="stroke: cyan; fill: cyan;"></path>
    </g>
   </svg>
   <g>
    <g transform="translate(0,640)">
     <path d="M0,0h960M0,-24V0M24,-12V0M48,-12V0M72,-12V0M96,-24V0M120,-12V0M144,-12V0M168,-12V0M192,-24V0M216,-12V0M240,-12V0M264,-12V0M288,-24V0M312,-12V0M336,-12V0M360,-12V0M384,-24V0M408,-12V0M432,-12V0M456,-12V0M480,-24V0M504,-12V0M528,-12V0M552,-12V0M576,-24V0M600,-12V0M624,-12V0M648,-12V0M672,-24V0M696,-12V0M720,-12V0M744,-12V0M768,-24V0M792,-12V0M816,-12V0M840,-12V0M864,-24V0M888,-12V0M912,-12V0M936,-12V0M960,-24V0" style="stroke: black; stroke-width: 1;"></path>
     <g font-family="Arial" font-size="28" space="preserve" fill="black" text-anchor="middle">
      <text dy=".8em" transform="translate(0,1)">
       -10
      </text>
      <text dy=".8em" transform="translate(96,1)">
       -8
      </text>
      <text dy=".8em" transform="translate(192,1)">
       -6
      </text>
      <text dy=".8em" transform="translate(288,1)">
       -4
      </text>
      <text dy=".8em" transform="translate(384,1)">
       -2
      </text>
      <text dy=".8em" transform="translate(480,1)">
       0
      </text>
      <text dy=".8em" transform="translate(576,1)">
       2
      </text>
      <text dy=".8em" transform="translate(672,1)">
       4
      </text>
      <text dy=".8em" transform="translate(768,1)">
       6
      </text>
      <text dy=".8em" transform="translate(864,1)">
       8
      </text>
      <text dy=".8em" transform="translate(960,1)">
       10
      </text>
     </g>
    </g>
    <g>
     <path d="M0,0v640M36,640H0M18,615H0M18,590H0M18,565H0M36,540H0M18,515H0M18,490H0M18,466H0M36,441H0M18,416H0M18,391H0M18,366H0M36,341H0M18,316H0M18,291H0M18,266H0M36,241H0M18,216H0M18,191H0M18,167H0M36,142H0M18,117H0M18,92H0M18,67H0M36,42H0M18,17H0" style="stroke: black; stroke-width: 1;"></path>
     <g font-family="Arial" font-size="28" space="preserve" fill="black" text-anchor="end">
      <text dy=".4em" transform="translate(-4,640)">
       0
      </text>
      <text dy=".4em" transform="translate(-4,540)">
       200
      </text>
      <text dy=".4em" transform="translate(-4,441)">
       400
      </text>
      <text dy=".4em" transform="translate(-4,341)">
       600
      </text>
      <text dy=".4em" transform="translate(-4,241)">
       800
      </text>
      <text dy=".4em" transform="translate(-4,142)">
       1000
      </text>
      <text dy=".4em" transform="translate(-4,42)">
       1200
      </text>
     </g>
    </g>
   </g>
  </g>
  <g transform="translate(120,80)" font-family="Arial" font-size="15" space="preserve">
   <path d="M0,0H456V160H0Z" style="fill: #f2f2f2; stroke: black; stroke-width: 1;"></path>
   <text fill="black" text-anchor="start" dy=".4em" transform="translate(14,24)">
    The Legend Title
   </text>
   <path d="M14,47v30h86v-30z" style="fill: url(#pat_3003_416); stroke: #000099; stroke-width: 1;"></path>
   <text fill="black" text-anchor="start" dy=".4em" transform="translate(114,62)">
    Histogram filled with random numbers
   </text>
   <path d="M14,99H100" style="stroke: blue; stroke-width: 4;"></path>
   <g transform="translate(114,104) scale(0.442)">
    <text fill="black" font-size="34">
     Function abs(
    </text>
    <g transform="translate(208)">
     <text fill="black" font-size="34" transform="translate(0,-20)">
      sin(x)
     </text>
     <path style="stroke: black; stroke-width: 2; fill: none;" d="M0,-12h82"></path>
     <text fill="black" font-size="34" transform="translate(34,21)">
      x
     </text>
    </g>
    <text fill="black" font-size="34" x="293">
     )
    </text>
   </g>
   <path d="M14,136H100" style="stroke: red; stroke-width: 2;"></path>
   <path d="M57,122V152" style="stroke: red; stroke-width: 2;"></path>
   <path d="M52,131v10h10v-10z" style="stroke: cyan; fill: cyan;"></path>
   <text fill="black" text-anchor="start" dy=".4em" transform="translate(114,137)">
    Graph with error bars
   </text>
  </g>
  <g transform="translate(382,4)" font-family="Arial" font-size="40" space="preserve">
   <text fill="black" text-anchor="middle" dy=".4em" transform="translate(219,25)">
    TLegend Example
   </text>
  </g>
 </g>
</svg>

<svg xmlns="http://www.w3.org/2000/svg" viewBox="0 0 1200 800" preserveAspectRatio="none" width="1200" height="800">
 <defs>
  <pattern id="pat_3003_416" patternUnits="userSpaceOnUse" width="4" height="4">
   <path d="M2,1h1v1h-1zM0,3h1v1h-1z" style="fill: green;"></path>
  </pattern>
 </defs>
 <path d="M0,0H1200V800H0Z" style="fill: white;"></path>
 <g>
  <g transform="translate(120,80)">
   <path d="M0,0H960V640H0Z" style="fill: white; stroke: black; stroke-width: 1;"></path>
   <svg x="0" y="0" overflow="hidden" width="960" height="640" viewBox="0 0 960 640">
    <g>
     <path d="M0,640h274v-1h4v1h24v-1h5v1h5v-1h5v-2h5v1h9v-4h5v-2h5v1h5v-10h4v-1h5v2h5v-18h5v2h5v-18h4v-7h5v-23h5v-14h5v-16h5v-18h4v-16h5v-38h5v-33h5v-13h5v-48h4v-36h5v-48h5v-16h5v-49h5v-22h4v-45h5v-30h5v-15h5v-10h5v-27h4v-9h5v-27h5v18h5v-14h5v31h4v5h5v26h5v40h5v49h5v20h4v30h5v32h5v27h5v29h5v34h4v49h5v33h5v9h5v42h5v18h4v25h5v20h5v14h5v14h5v13h9v18h5v5h5v3h5v4h4v7h5v2h5v3h5v4h5v-2h4v1h5v-2h5v2h5v1h5v-1h4v1h10v-1h5v1h283L960,643H0Z" style="stroke-linejoin: miter; stroke: #000099; stroke-width: 1; fill: url(#pat_3003_416);"></path>
    </g>
    <g>
     <path d="M5,617L15,626L24,636L34,633L43,623L53,612L63,602L72,593L82,586L91,580L101,577L111,576L120,578L130,582L139,589L149,598L159,610L168,624L178,639L187,625L197,608L207,592L216,576L226,562L235,550L245,540L255,534L264,532L274,534L283,541L293,552L303,569L312,590L322,616L331,633L341,599L351,561L360,521L370,478L379,435L389,392L399,349L408,309L418,271L427,236L437,206L447,181L456,162L466,149L475,142L485,142L495,149L504,162L514,181L523,206L533,236L543,271L552,309L562,349L571,392L581,435L591,478L600,521L610,561L619,599L629,633L639,616L648,590L658,569L667,552L677,541L687,534L696,532L706,534L715,540L725,550L735,562L744,576L754,592L763,608L773,625L783,639L792,624L802,610L811,598L821,589L831,582L840,578L850,576L859,577L869,580L879,586L888,593L898,602L907,612L917,623L927,633L936,636L946,626L955,617" style="fill: none; stroke: blue; stroke-width: 4;"></path>
    </g>
    <g>
     <g transform="translate(53,541)">
      <path style="stroke: red; stroke-width: 2; fill: none;" d="M0,0H-48m0,4v-8M0,0H48m0,4v-8"></path>
     </g>
     <g transform="translate(138,493)">
      <path style="stroke: red; stroke-width: 2; fill: none;" d="M0,0H-48m0,4v-8M0,0H48m0,4v-8M0,0V5m4,0h-8M0,0V-5m4,0h-8"></path>
     </g>
     <g transform="translate(224,446)">
      <path style="stroke: red; stroke-width: 2; fill: none;" d="M0,0H-48m0,4v-8M0,0H48m0,4v-8M0,0V10m4,0h-8M0,0V-10m4,0h-8"></path>
     </g>
     <g transform="translate(309,401)">
      <path style="stroke: red; stroke-width: 2; fill: none;" d="M0,0H-48m0,4v-8M0,0H48m0,4v-8M0,0V15m4,0h-8M0,0V-15m4,0h-8"></path>
     </g>
     <g transform="translate(395,359)">
      <path style="stroke: red; stroke-width: 2; fill: none;" d="M0,0H-48m0,4v-8M0,0H48m0,4v-8M0,0V20m4,0h-8M0,0V-20m4,0h-8"></path>
     </g>
     <g transform="translate(480,319)">
      <path style="stroke: red; stroke-width: 2; fill: none;" d="M0,0H-48m0,4v-8M0,0H48m0,4v-8M0,0V25m4,0h-8M0,0V-25m4,0h-8"></path>
     </g>
     <g transform="translate(565,282)">
      <path style="stroke: red; stroke-width: 2; fill: none;" d="M0,0H-48m0,4v-8M0,0H48m0,4v-8M0,0V30m4,0h-8M0,0V-30m4,0h-8"></path>
     </g>
     <g transform="translate(651,250)">
      <path style="stroke: red; stroke-width: 2; fill: none;" d="M0,0H-48m0,4v-8M0,0H48m0,4v-8M0,0V35m4,0h-8M0,0V-35m4,0h-8"></path>
     </g>
     <g transform="translate(736,221)">
      <path style="stroke: red; stroke-width: 2; fill: none;" d="M0,0H-48m0,4v-8M0,0H48m0,4v-8M0,0V40m4,0h-8M0,0V-40m4,0h-8"></path>
     </g>
     <g transform="translate(822,196)">
      <path style="stroke: red; stroke-width: 2; fill: none;" d="M0,0H-48m0,4v-8M0,0H48m0,4v-8M0,0V45m4,0h-8M0,0V-45m4,0h-8"></path>
     </g>
     <g transform="translate(907,175)">
      <path style="stroke: red; stroke-width: 2; fill: none;" d="M0,0H-48m0,4v-8M0,0H48m0,4v-8M0,0V50m4,0h-8M0,0V-50m4,0h-8"></path>
     </g>
     <path d="M48,536v10h10v-10zM133,488v10h10v-10zM218,441v10h10v-10zM304,396v10h10v-10zM389,353v10h10v-10zM475,314v10h10v-10zM560,277v10h10v-10zM646,244v10h10v-10zM731,215v10h10v-10zM817,191v10h10v-10zM902,170v10h10v-10z" style="stroke: cyan; fill: cyan;"></path>
    </g>
   </svg>
   <g>
    <g transform="translate(0,640)">
     <path d="M0,0h960M0,-24V0M24,-12V0M48,-12V0M72,-12V0M96,-24V0M120,-12V0M144,-12V0M168,-12V0M192,-24V0M216,-12V0M240,-12V0M264,-12V0M288,-24V0M312,-12V0M336,-12V0M360,-12V0M384,-24V0M408,-12V0M432,-12V0M456,-12V0M480,-24V0M504,-12V0M528,-12V0M552,-12V0M576,-24V0M600,-12V0M624,-12V0M648,-12V0M672,-24V0M696,-12V0M720,-12V0M744,-12V0M768,-24V0M792,-12V0M816,-12V0M840,-12V0M864,-24V0M888,-12V0M912,-12V0M936,-12V0M960,-24V0" style="stroke: black; stroke-width: 1;"></path>
     <g font-family="Arial" font-size="28" space="preserve" fill="black" text-anchor="middle">
      <text dy=".8em" transform="translate(0,1)">
       -10
      </text>
      <text dy=".8em" transform="translate(96,1)">
       -8
      </text>
      <text dy=".8em" transform="translate(192,1)">
       -6
      </text>
      <text dy=".8em" transform="translate(288,1)">
       -4
      </text>
      <text dy=".8em" transform="translate(384,1)">
       -2
      </text>
      <text dy=".8em" transform="translate(480,1)">
       0
      </text>
      <text dy=".8em" transform="translate(576,1)">
       2
      </text>
      <text dy=".8em" transform="translate(672,1)">
       4
      </text>
      <text dy=".8em" transform="translate(768,1)">
       6
      </text>
      <text dy=".8em" transform="translate(864,1)">
       8
      </text>
      <text dy=".8em" transform="translate(960,1)">
       10
      </text>
     </g>
    </g>
    <g>
     <path d="M0,0v640M36,640H0M18,615H0M18,590H0M18,565H0M36,540H0M18,515H0M18,490H0M18,466H0M36,441H0M18,416H0M18,391H0M18,366H0M36,341H0M18,316H0M18,291H0M18,266H0M36,241H0M18,216H0M18,191H0M18,167H0M36,142H0M18,117H0M18,92H0M18,67H0M36,42H0M18,17H0" style="stroke: black; stroke-width: 1;"></path>
     <g font-family="Arial" font-size="28" space="preserve" fill="black" text-anchor="end">
      <text dy=".4em" transform="translate(-4,640)">
       0
      </text>
      <text dy=".4em" transform="translate(-4,540)">
       200
      </text>
      <text dy=".4em" transform="translate(-4,441)">
       400
      </text>
      <text dy=".4em" transform="translate(-4,341)">
       600
      </text>
      <text dy=".4em" transform="translate(-4,241)">
       800
      </text>
      <text dy=".4em" transform="translate(-4,142)">
       1000
      </text>
      <text dy=".4em" transform="translate(-4,42)">
       1200
      </text>
     </g>
    </g>
   </g>
  </g>
  <g transform="translate(120,80)" font-family="Arial" font-size="15" space="preserve">
   <path d="M0,0H456V160H0Z" style="fill: #f2f2f2; stroke: black; stroke-width: 1;"></path>
   <text fill="black" text-anchor="start" dy=".4em" transform="translate(14,24)">
    The Legend Title
   </text>
   <path d="M14,47v30h86v-30z" style="fill: url(#pat_3003_416); stroke: #000099; stroke-width: 1;"></path>
   <text fill="black" text-anchor="start" dy=".4em" transform="translate(114,62)">
    Histogram filled with random numbers
   </text>
   <path d="M14,99H100" style="stroke: blue; stroke-width: 4;"></path>
   <g transform="translate(114,104) scale(0.442)">
    <text fill="black" font-size="34">
     Function abs(
    </text>
    <g transform="translate(208)">
     <text fill="black" font-size="34" transform="translate(0,-20)">
      sin(x)
     </text>
     <path style="stroke: black; stroke-width: 2; fill: none;" d="M0,-12h82"></path>
     <text fill="black" font-size="34" transform="translate(34,21)">
      x
     </text>
    </g>
    <text fill="black" font-size="34" x="293">
     )
    </text>
   </g>
   <path d="M14,136H100" style="stroke: red; stroke-width: 2;"></path>
   <path d="M57,122V152" style="stroke: red; stroke-width: 2;"></path>
   <path d="M52,131v10h10v-10z" style="stroke: cyan; fill: cyan;"></path>
   <text fill="black" text-anchor="start" dy=".4em" transform="translate(114,137)">
    Graph with error bars
   </text>
  </g>
  <g transform="translate(382,4)" font-family="Arial" font-size="40" space="preserve">
   <text fill="black" text-anchor="middle" dy=".4em" transform="translate(219,25)">
    TLegend Example
   </text>
  </g>
 </g>
</svg>
